dist/images/icon/youtube.svg

<svg width="30" height="30" viewBox="0 0 30 30" fill="none" xmlns="http://www.w3.org/2000/svg">
<path d="M13.1318 17.8102L18.0111 15L13.1318 12.1898V17.8102Z" fill="#2F3035"/>
<path d="M15 0C6.717 0 0 6.717 0 15C0 23.283 6.717 30 15 30C23.283 30 30 23.283 30 15C30 6.717 23.283 0 15 0ZM24.3727 15.0153C24.3727 15.0153 24.3727 18.0574 23.9868 19.5243C23.7705 20.3272 23.1374 20.9603 22.3345 21.1764C20.8676 21.5625 15 21.5625 15 21.5625C15 21.5625 9.14772 21.5625 7.66548 21.161C6.86256 20.945 6.22948 20.3117 6.01318 19.5087C5.62706 18.0574 5.62706 15 5.62706 15C5.62706 15 5.62706 11.9582 6.01318 10.4913C6.22925 9.68834 6.8779 9.03969 7.66548 8.82362C9.13239 8.4375 15 8.4375 15 8.4375C15 8.4375 20.8676 8.4375 22.3345 8.83896C23.1374 9.05502 23.7705 9.68834 23.9868 10.4913C24.3883 11.9582 24.3727 15.0153 24.3727 15.0153Z" fill="#2F3035"/>
</svg>

<svg width="30" height="30" fill="none" xmlns="http://www.w3.org/2000/svg"><path d="M13.132 17.81l4.88-2.81-4.88-2.81v5.62z" fill="#2F3035"/><path d="M15 0C6.717 0 0 6.717 0 15c0 8.283 6.717 15 15 15 8.283 0 15-6.717 15-15 0-8.283-6.717-15-15-15zm9.373 15.015s0 3.042-.386 4.51a2.349 2.349 0 01-1.652 1.651c-1.467.387-7.335.387-7.335.387s-5.852 0-7.335-.402a2.349 2.349 0 01-1.652-1.652C5.627 18.057 5.627 15 5.627 15s0-3.042.386-4.509a2.396 2.396 0 011.652-1.667C9.132 8.438 15 8.438 15 8.438s5.868 0 7.334.401c.803.216 1.436.85 1.653 1.652.401 1.467.386 4.524.386 4.524z" fill="#2F3035"/></svg>8 10.4913C6.22925 9.68834 6.8779 9.03969 7.66548 8.82362C9.13239 8.4375 15 8.4375 15 8.4375C15 8.4375 20.8676 8.4375 22.3345 8.83896C23.1374 9.05502 23.7705 9.68834 23.9868 10.4913C24.3883 11.9582 24.3727 15.0153 24.3727 15.0153Z" fill="#2F3035"/>
</svg>
